static/fa/svgs/solid/child.svg

<svg xmlns="http://www.w3.org/2000/svg" viewBox="0 0 320 512"><!--! Font Awesome Free 6.1.1 by @fontawesome - https://fontawesome.com License - https://fontawesome.com/license/free (Icons: CC BY 4.0, Fonts: SIL OFL 1.1, Code: MIT License) Copyright 2022 Fonticons, Inc.--><path d="M224 64c0 35.35-28.7 64-64 64S96 99.35 96 64s28.7-64 64-64 64 28.65 64 64zm-80 320v96c0 17.7-14.3 32-32 32-17.67 0-31.99-14.3-31.99-32V287.8L59.09 321c-9.42 15-29.17 19.5-44.13 10.1-14.958-9.4-19.451-29.2-10.036-45l39.866-62.5C69.72 184 113.2 160 160 160s90.3 24 115.2 63.6l39.9 62.5c9.4 15.8 4.9 35.6-10 45-15 9.4-34.8 4.9-44.2-10.1L240 287.8V480c0 17.7-14.3 32-32 32s-32-14.3-32-32v-96h-32z"/></svg>

<svg xmlns="http://www.w3.org/2000/svg" viewBox="0 0 320 512"><!--! Font Awesome Free 6.1.1 by @fontawesome - https://fontawesome.com License - https://fontawesome.com/license/free (Icons: CC BY 4.0, Fonts: SIL OFL 1.1, Code: MIT License) Copyright 2022 Fonticons, Inc. --><path d="M224 64C224 99.35 195.3 128 160 128C124.7 128 96 99.35 96 64C96 28.65 124.7 0 160 0C195.3 0 224 28.65 224 64zM144 384V480C144 497.7 129.7 512 112 512C94.33 512 80.01 497.7 80.01 480V287.8L59.09 321C49.67 336 29.92 340.5 14.96 331.1C.0016 321.7-4.491 301.9 4.924 286.1L44.79 223.6C69.72 184 113.2 160 160 160C206.8 160 250.3 184 275.2 223.6L315.1 286.1C324.5 301.9 320 321.7 305.1 331.1C290.1 340.5 270.3 336 260.9 321L240 287.8V480C240 497.7 225.7 512 208 512C190.3 512 176 497.7 176 480V384L144 384z"/></svg>
